svg/select_search.svg

<svg xmlns="http://www.w3.org/2000/svg" viewBox="0 0 24 24"><path d="M19.31 18.9c.44-.69.69-1.52.69-2.4 0-2.5-2-4.5-4.5-4.5S11 14 11 16.5s2 4.5 4.5 4.5c.87 0 1.69-.25 2.38-.68L21 23.39 22.39 22zm-3.81.1a2.5 2.5 0 0 1 0-5 2.5 2.5 0 0 1 0 5M21 9h-2V7h2zm0-4h-2V3h1c.55 0 1 .45 1 1zm-2 6.03V11h2v2h-.03A6.6 6.6 0 0 0 19 11.03M17 5h-2V3h2zm-4 0h-2V3h2zM3 7h2v2H3zm4 12h2v2H7zm-4-8h2v2H3zm1-8h1v2H3V4c0-.55.45-1 1-1m5 2H7V3h2zM3 19h2v2H4c-.55 0-1-.45-1-1zm0-4h2v2H3z"/></svg>

<?xml version="1.0" encoding="UTF-8"?><!DOCTYPE svg PUBLIC "-//W3C//DTD SVG 1.1//EN" "http://www.w3.org/Graphics/SVG/1.1/DTD/svg11.dtd"><svg xmlns="http://www.w3.org/2000/svg" xmlns:xlink="http://www.w3.org/1999/xlink" version="1.1" id="mdi-select-search" width="24" height="24" viewBox="0 0 24 24"><path d="M19.31 18.9C19.75 18.21 20 17.38 20 16.5C20 14 18 12 15.5 12S11 14 11 16.5 13 21 15.5 21C16.37 21 17.19 20.75 17.88 20.32L21 23.39L22.39 22L19.31 18.9M15.5 19C14.12 19 13 17.88 13 16.5S14.12 14 15.5 14 18 15.12 18 16.5 16.88 19 15.5 19M21 9H19V7H21V9M21 5H19V3H20C20.55 3 21 3.45 21 4V5M19 11.03V11H21V13H20.97C20.46 12.21 19.79 11.54 19 11.03M17 5H15V3H17V5M13 5H11V3H13V5M3 7H5V9H3V7M7 19H9V21H7V19M3 11H5V13H3V11M4 3H5V5H3V4C3 3.45 3.45 3 4 3M9 5H7V3H9V5M3 19H5V21H4C3.45 21 3 20.55 3 20V19M3 15H5V17H3V15Z" /></svg>
